Papirus/32x32/mimetypes/application-x-hda.svg

<svg width="32" height="32" version="1.1" xmlns="http://www.w3.org/2000/svg">
 <path d="m3.0056435 10.517041c-0.00327 0.0542-0.00515 0.108473-0.00563 0.162767v11.077991c3.386e-4 1.15709 0.6288958 2.226144 1.64898 2.804596l9.7020395 5.503462c1.020364 0.578857 2.277596 0.578857 3.29796 0l9.702038-5.503462c1.020515-0.578702 1.649141-1.6484 1.648973-2.805988v-11.076599c-0.0015-0.04086-0.0039-0.08166-7e-3 -0.122423 7e-3 -0.0013-25.987315-0.04035-25.987315-0.04035z" style="opacity:.2"/>
 <path d="m3.0056435 10.00827c-0.00327 0.0542-0.00515 0.108473-0.00563 0.162766v11.077991c3.386e-4 1.157089 0.6288958 2.226144 1.64898 2.804596l9.7020395 5.503462c1.020364 0.578858 2.277596 0.578858 3.29796 0l9.702038-5.503462c1.020515-0.578701 1.649141-1.6484 1.648973-2.805987v-11.0766c-0.0015-0.04086-0.0039-0.08166-7e-3 -0.122423 7e-3 -0.0013-25.987315-0.04035-25.987315-0.04035z" style="fill:#c25824"/>
 <path d="m16.077644 1.5v0.00143a3.2999392 3.2779266 0 0 0-1.727877 0.436385l-9.7094138 5.568967a3.2999392 3.2779266 0 0 0-1.6403517 2.628215 3.2999392 3.2779266 0 0 0 1.6403517 2.654973l9.7094138 5.568966a3.2999392 3.2779266 0 0 0 3.300466 0l9.709417-5.568967a3.2999392 3.2779266 0 0 0 1.640351-2.628227 3.2999392 3.2779266 0 0 0-1.640351-2.6549717l-9.709417-5.568967a3.2999392 3.2779266 0 0 0-1.572589-0.4378033z" style="fill:#f36128"/>
 <path d="m16.077189 1.5v0.00199a3.2999392 3.2779266 0 0 0-1.726563 0.4352335l-9.7093748 5.5686707a3.2999392 3.2779266 0 0 0-1.6412497 2.6293168 3.2999392 3.2779266 0 0 0 0.0284388 0.242462 3.2999392 3.2779266 0 0 1 1.6128122-2.3630069l9.7093735-5.5686683a3.2999392 3.2779266 0 0 1 1.726563-0.4352386v-0.00199a3.2999392 3.2779266 0 0 1 1.572186 0.4372287l9.709376 5.5686653a3.2999392 3.2779266 0 0 1 1.612811 2.3858618 3.2999392 3.2779266 0 0 0 0.02844-0.239481 3.2999392 3.2779266 0 0 0-1.641249-2.6551527l-9.709377-5.5686654a3.2999392 3.2779266 0 0 0-1.572187-0.4372259z" style="fill:#ffffff;opacity:.2"/>
 <path d="m3.0060948 10.008018c-0.00213 0.03569-0.00312 0.07158-0.00405 0.107322a3.2999392 3.2779266 0 0 1 0.011169-0.107322h-0.00711zm-0.00509 0.136136c-1.528e-4 0.0089-9.36e-4 0.01789-9.88e-4 0.02683v11.077714c3.386e-4 1.157089 0.6292905 2.22675 1.6493752 2.805202l9.70125 5.503083c0.525015 0.297841 1.063474 0.442902 1.649376 0.434243v-11.195961a3.2999392 3.2779266 0 0 1-1.650408-0.436232l-9.7093744-5.568669a3.2999392 3.2779266 0 0 1-1.6392186-2.64621z" style="opacity:.1"/>
 <path d="m3.0284386 9.8957308a3.2999392 3.2779266 0 0 0-0.028439 0.2394802 3.2999392 3.2779266 0 0 0 1.6412497 2.655153l9.7093767 5.568669a3.2999392 3.2779266 0 0 0 3.298749 0l9.709375-5.568669a3.2999392 3.2779266 0 0 0 1.64125-2.629317 3.2999392 3.2779266 0 0 0-0.02844-0.242461 3.2999392 3.2779266 0 0 1-1.612812 2.363007l-9.709374 5.568668a3.2999392 3.2779266 0 0 1-3.29875 0l-9.7093728-5.568668a3.2999392 3.2779266 0 0 1-1.6128126-2.3858622z" style="opacity:.1"/>
 <path d="m21.994218 14.67669c-2.057226 1.175525-4.581487 1.855958-5.864618 2.041701-1.021623 0.147888-2.292492 0.163237-3.795628-0.02475-1.210722-0.69439-1.962871-1.123385-2.6986824-1.548876 1.1155644 0.162198 2.4728164 0.313659 3.7398124 0.422635 1.797463 0.154603 4.492959-0.469967 6.551989-1.621885 0.138114-0.07723 0.275078-0.157706 0.410719-0.241167 3.091276-1.902635 2.831673-4.6075093 0.289174-6.1487739-2.850079-1.7282108-6.660915-1.8062488-9.675475 0.072888-2.0235822 1.2613086-2.5926729 3.2706889-0.425168 4.4594849 1.703814 0.934613 4.222989 1.00868 6.165427-0.07932 1.584716-0.887684 1.177575-1.869482 0.53408-2.2509981-0.612197-0.3629605-1.777964-0.6098451-2.883663-0.1769075-0.889789 0.3483931-1.167009 1.4086566 0.642802 1.5461896-0.762757 0.493165-1.951724 0.615541-2.873876 0.128502-1.800039-0.951052-0.67935-2.4243906 0.660619-3.013661 2.475961-1.0889866 4.637999-0.7533233 6.463006 0.3523805 1.88943 1.1450717 1.753334 3.1869975-0.53185 4.5386415-1.808434 1.069479-4.310932 1.83984-7.976619 0.922838-3.6656878-0.917006-4.5955783-2.933337-3.8689932-5.0844902 0.5904251-1.6852251 3.1071899-3.5492587 6.6917092-4.0920116 3.58452-0.5427532 6.454591-0.1552842 9.124864 1.4762517 3.774334 2.3066891 3.803699 5.7596241-0.679629 8.3213281v1e-6" style="opacity:.2"/>
 <path d="m21.994218 14.168052c-2.057226 1.175526-4.581487 1.85596-5.864618 2.041701-1.283129 0.185743-2.982124 0.161923-5.00635-0.210505l-2.7376989-1.570168c1.2129659 0.234968 3.1920869 0.475077 4.9895509 0.629679 1.797463 0.154603 4.492959-0.469966 6.551989-1.621885 0.138114-0.07723 0.275078-0.157706 0.410719-0.241166 3.091276-1.902636 2.831673-4.6075099 0.289174-6.1487745-2.850079-1.7282108-6.660915-1.8062487-9.675475 0.072887-2.0235822 1.2613088-2.5926729 3.2706895-0.425168 4.4594865 1.703814 0.934613 4.222989 1.00868 6.165427-0.07932 1.584716-0.887684 1.177575-1.8694818 0.53408-2.250998-0.612197-0.3629609-1.777964-0.6098456-2.883663-0.1769071-0.889789 0.3483932-1.167009 1.4086561 0.642802 1.5461881-0.762757 0.493165-1.951724 0.615542-2.873876 0.128503-1.800039-0.9510527-0.67935-2.424391 0.660619-3.0136613 2.475961-1.0889867 4.637999-0.7533234 6.463006 0.3523805 1.88943 1.1450716 1.753334 3.1869968-0.53185 4.5386418-1.808434 1.069478-4.310932 1.839839-7.976619 0.922837-3.6656878-0.917003-4.5955783-2.933335-3.8689932-5.0844874 0.5904251-1.6852251 3.1071899-3.5492586 6.6917092-4.0920115 3.58452-0.5427533 6.454591-0.1552848 9.124864 1.4762516 3.774334 2.3066892 3.803699 5.7596233-0.679629 8.3213283" style="fill:#e4e4e4"/>
</svg>

<svg xmlns="http://www.w3.org/2000/svg" width="32" height="32" version="1.1">
 <path style="opacity:0.2" d="M 3.0056,10.517 C 3.0024,10.571 3.0005,10.626 3,10.68 V 21.758 C 3.0004,22.915 3.6289,23.984 4.649,24.562 L 14.351,30.066 C 15.371,30.645 16.629,30.645 17.649,30.066 L 27.351,24.562 C 28.372,23.984 29,22.914 29,21.756 V 10.68 C 28.999,10.639 28.996,10.598 28.993,10.557 29,10.556 3.0057,10.517 3.0057,10.517 Z"/>
 <path style="fill:#c25824" d="M 3.0056,10.008 C 3.0024,10.062 3.0005,10.117 3,10.171 V 21.249 C 3.0004,22.406 3.6289,23.475 4.649,24.054 L 14.351,29.557 C 15.371,30.136 16.629,30.136 17.649,29.557 L 27.351,24.054 C 28.372,23.475 29,22.405 29,21.248 V 10.171 C 28.999,10.13 28.996,10.089 28.993,10.049 29,10.047 3.0057,10.008 3.0057,10.008 Z"/>
 <path style="fill:#f36128" d="M 16.078,1.5 V 1.5014 A 3.2999,3.2779 0 0 0 14.35,1.9378 L 4.6404,7.5068 A 3.2999,3.2779 0 0 0 3,10.135 3.2999,3.2779 0 0 0 4.6404,12.79 L 14.35,18.359 A 3.2999,3.2779 0 0 0 17.65,18.359 L 27.36,12.79 A 3.2999,3.2779 0 0 0 29,10.162 3.2999,3.2779 0 0 0 27.36,7.5068 L 17.65,1.9378 A 3.2999,3.2779 0 0 0 16.078,1.5 Z"/>
 <path style="opacity:0.2;fill:#ffffff" d="M 16.077,1.5 V 1.502 A 3.2999,3.2779 0 0 0 14.351,1.9372 L 4.6413,7.5059 A 3.2999,3.2779 0 0 0 3,10.135 3.2999,3.2779 0 0 0 3.0284,10.378 3.2999,3.2779 0 0 1 4.6413,8.0147 L 14.351,2.446 A 3.2999,3.2779 0 0 1 16.077,2.0108 V 2.0088 A 3.2999,3.2779 0 0 1 17.649,2.446 L 27.359,8.0147 A 3.2999,3.2779 0 0 1 28.972,10.401 3.2999,3.2779 0 0 0 29,10.161 3.2999,3.2779 0 0 0 27.359,7.5059 L 17.649,1.9372 A 3.2999,3.2779 0 0 0 16.077,1.5 Z"/>
 <path style="opacity:0.1" d="M 3.0061,10.008 C 3.004,10.044 3.003,10.08 3.002,10.115 A 3.2999,3.2779 0 0 1 3.0132,10.008 Z M 3.001,10.144 C 3.0009,10.153 3.0001,10.162 3,10.171 V 21.249 C 3.0004,22.406 3.6293,23.475 4.6494,24.054 L 14.351,29.557 C 14.876,29.855 15.414,30 16,29.991 V 18.795 A 3.2999,3.2779 0 0 1 14.35,18.359 L 4.6402,12.79 A 3.2999,3.2779 0 0 1 3.001,10.144 Z"/>
 <path style="opacity:0.1" d="M 3.0284,9.8957 A 3.2999,3.2779 0 0 0 3,10.135 3.2999,3.2779 0 0 0 4.6412,12.79 L 14.351,18.359 A 3.2999,3.2779 0 0 0 17.649,18.359 L 27.359,12.79 A 3.2999,3.2779 0 0 0 29,10.161 3.2999,3.2779 0 0 0 28.972,9.9186 3.2999,3.2779 0 0 1 27.359,12.282 L 17.649,17.85 A 3.2999,3.2779 0 0 1 14.351,17.85 L 4.6413,12.282 A 3.2999,3.2779 0 0 1 3.0284,9.8957 Z"/>
 <path style="opacity:0.2" d="M 21.994,14.677 C 19.937,15.852 17.413,16.533 16.13,16.718 15.108,16.866 13.837,16.882 12.334,16.694 11.123,15.999 10.371,15.57 9.6353,15.145 10.751,15.307 12.108,15.458 13.375,15.567 15.173,15.722 17.868,15.097 19.927,13.946 20.065,13.868 20.202,13.788 20.338,13.704 23.429,11.802 23.169,9.0968 20.627,7.5556 17.777,5.8274 13.966,5.7493 10.952,7.6285 8.9279,8.8898 8.3588,10.899 10.526,12.088 12.23,13.023 14.749,13.097 16.692,12.009 18.276,11.121 17.869,10.139 17.226,9.7576 16.614,9.3947 15.448,9.1478 14.342,9.5807 13.452,9.9291 13.175,10.989 14.985,11.127 14.222,11.62 13.033,11.742 12.111,11.255 10.311,10.304 11.432,8.831 12.772,8.2418 15.248,7.1528 17.41,7.4884 19.235,8.5941 21.124,9.7392 20.988,11.781 18.703,13.133 16.894,14.202 14.392,14.973 10.726,14.056 7.0606,13.139 6.1307,11.122 6.8573,8.9711 7.4477,7.2859 9.9645,5.4219 13.549,4.8791 17.134,4.3364 20.004,4.7238 22.674,6.3554 26.448,8.6621 26.478,12.115 21.994,14.677 V 14.677"/>
 <path style="fill:#e4e4e4" d="M 21.994,14.168 C 19.937,15.344 17.413,16.024 16.13,16.21 14.846,16.395 13.147,16.372 11.123,15.999 L 8.3856,14.429 C 9.5985,14.664 11.578,14.904 13.375,15.059 15.173,15.213 17.868,14.589 19.927,13.437 20.065,13.36 20.202,13.279 20.338,13.196 23.429,11.293 23.169,8.5882 20.627,7.0469 17.777,5.3187 13.966,5.2407 10.952,7.1198 8.9279,8.3811 8.3588,10.391 10.526,11.579 12.23,12.514 14.749,12.588 16.692,11.5 18.276,10.612 17.869,9.6305 17.226,9.249 16.614,8.886 15.448,8.6391 14.342,9.0721 13.452,9.4205 13.175,10.481 14.985,10.618 14.222,11.111 13.033,11.234 12.111,10.747 10.311,9.7957 11.432,8.3224 12.772,7.7331 15.248,6.6441 17.41,6.9798 19.235,8.0855 21.124,9.2306 20.988,11.272 18.703,12.624 16.894,13.694 14.392,14.464 10.726,13.547 7.0606,12.63 6.1307,10.614 6.8573,8.4625 7.4477,6.7773 9.9645,4.9132 13.549,4.3705 17.134,3.8277 20.004,4.2152 22.674,5.8467 26.448,8.1534 26.478,11.606 21.994,14.168"/>
</svg>
